facebook.svg

<svg width="259" height="259" viewBox="0 0 259 259" xmlns="http://www.w3.org/2000/svg" xmlns:sketch="http://www.bohemiancoding.com/sketch/ns"><title>facebook</title><desc>Created with Sketch.</desc><g sketch:type="MSLayerGroup" fill="none"><path d="M244.082 258.307c7.854 0 14.223-6.369 14.223-14.225v-229.27c0-7.857-6.368-14.224-14.223-14.224h-229.27c-7.857 0-14.224 6.367-14.224 14.224v229.27c0 7.855 6.366 14.225 14.224 14.225h229.27z" fill="#000" sketch:type="MSShapeGroup"/><path d="M178.409 258.307v-99.803h33.499l5.016-38.895h-38.515v-24.832c0-11.261 3.127-18.935 19.275-18.935l20.596-.009v-34.788c-3.562-.474-15.788-1.533-30.012-1.533-29.695 0-50.025 18.126-50.025 51.413v28.684h-33.585v38.895h33.585v99.803h40.166z" fill="#fff" sketch:type="MSShapeGroup"/></g></svg>

<?xml version="1.0" encoding="UTF-8" standalone="no"?>
<svg width="259px" height="259px" viewBox="0 0 259 259" version="1.1" xmlns="http://www.w3.org/2000/svg" xmlns:xlink="http://www.w3.org/1999/xlink" xmlns:sketch="http://www.bohemiancoding.com/sketch/ns">
    <!-- Generator: Sketch 3.2.2 (9983) - http://www.bohemiancoding.com/sketch -->
    <title>facebook</title>
    <desc>Created with Sketch.</desc>
    <defs></defs>
    <g id="Page-1" stroke="none" stroke-width="1" fill="none" fill-rule="evenodd" sketch:type="MSPage">
        <g id="facebook" sketch:type="MSLayerGroup">
            <path d="M244.082,258.307 C251.936,258.307 258.305,251.938 258.305,244.082 L258.305,14.812 C258.305,6.955 251.937,0.588 244.082,0.588 L14.812,0.588 C6.955,0.588 0.588,6.955 0.588,14.812 L0.588,244.082 C0.588,251.937 6.954,258.307 14.812,258.307 L244.082,258.307 L244.082,258.307 Z" id="Blue_1_" fill="#000000" sketch:type="MSShapeGroup"></path>
            <path d="M178.409,258.307 L178.409,158.504 L211.908,158.504 L216.924,119.609 L178.409,119.609 L178.409,94.777 C178.409,83.516 181.536,75.842 197.684,75.842 L218.28,75.833 L218.28,41.045 C214.718,40.571 202.492,39.512 188.268,39.512 C158.573,39.512 138.243,57.638 138.243,90.925 L138.243,119.609 L104.658,119.609 L104.658,158.504 L138.243,158.504 L138.243,258.307 L178.409,258.307 L178.409,258.307 Z" id="f" fill="#FFFFFF" sketch:type="MSShapeGroup"></path>
        </g>
    </g>
</svg>
